X: 1
T: Accidentals In The Workhouse
Z: fionán
S: https://thesession.org/tunes/16284#setting30819
R: jig
M: 6/8
L: 1/8
K: Gmaj
│: DED BAG | EDE cBA |Ddc BAG | EA^c d=cA |
DED BAG | EDE cBA | Ddc Bcd |1 cAF G2G :|2 cAF G2F ||
|: EDE B,EG | Bef gfe | d^cd ABA | FDF AFD |
EDE B,EG | Bef gfe | d^cd d=cB |1 AGF E2D :|2 AGF E3 ||
